src/images/icons/phone.svg

<svg width="20" height="20" viewBox="0 0 20 20" fill="none" xmlns="http://www.w3.org/2000/svg">
<path fill-rule="evenodd" clip-rule="evenodd" d="M4.73227 3.25077C4.71358 3.25011 4.69018 3.25 4.60582 3.25L4.57523 3.25013C4.56989 3.25022 4.56165 3.25044 4.54397 3.25122C4.25796 3.26385 3.94579 3.41639 3.70149 3.68569C3.45718 3.95499 3.33568 4.2805 3.35088 4.56638L3.35168 4.58351C3.35173 4.58476 3.35179 4.58624 3.35185 4.58791C3.51876 6.24676 3.888 7.74737 4.43971 9.08091L5.48069 8.21062C6.08098 7.70876 6.23569 7.56637 6.32879 7.41056C6.4249 7.24973 6.48362 7.06936 6.50062 6.88277C6.51709 6.70202 6.47587 6.49584 6.2861 5.73676L5.92116 4.27699C5.9007 4.19514 5.89491 4.17247 5.88974 4.15449C5.74018 3.63449 5.27303 3.26975 4.73227 3.25077ZM5.1146 10.4718L6.4428 9.36142C6.47126 9.33763 6.49938 9.31416 6.52715 9.29098C7.0025 8.89425 7.37576 8.58272 7.61641 8.18001C7.82784 7.82618 7.95704 7.42936 7.99444 7.01887C8.037 6.55166 7.9187 6.08011 7.76803 5.47956C7.75922 5.44448 7.75031 5.40895 7.74131 5.37296L7.37637 3.91319L7.37344 3.90147C7.35728 3.83678 7.34472 3.78654 7.3313 3.73988C7.00227 2.59587 5.97453 1.79344 4.78488 1.75169C4.73635 1.74999 4.68457 1.74999 4.6179 1.75L4.60582 1.75C4.56605 1.75 4.53708 1.75006 4.4778 1.75268C3.72462 1.78594 3.0547 2.16616 2.59052 2.67784C2.14343 3.17068 1.83624 3.84164 1.85 4.5631C1.84953 4.56966 1.84922 4.57503 1.84909 4.57873C1.84894 4.58906 1.84899 4.60599 1.84912 4.61259L1.84965 4.62844L1.85048 4.64357L1.85132 4.65517L1.85195 4.66266L1.85222 4.66558L1.85271 4.67069L1.8532 4.67568C2.06912 6.8887 2.6223 8.88365 3.4965 10.6235C4.79575 13.2093 6.79069 15.2042 9.37649 16.5035C11.1163 17.3777 13.1113 17.9309 15.3243 18.1468L15.3293 18.1473L15.3344 18.1478L15.3373 18.148L15.3448 18.1487L15.3564 18.1495L15.3716 18.1503L15.3874 18.1509C15.3907 18.1509 15.3966 18.151 15.403 18.151C15.4093 18.151 15.4161 18.151 15.4213 18.1509C15.425 18.1508 15.4303 18.1505 15.4369 18.15C16.1584 18.1638 16.8293 17.8566 17.3222 17.4095C17.8338 16.9453 18.2141 16.2754 18.2473 15.5222C18.2499 15.4629 18.25 15.4339 18.25 15.3942V15.3821C18.25 15.3154 18.25 15.2636 18.2483 15.2151C18.2066 14.0255 17.4041 12.9977 16.2601 12.6687C16.2135 12.6553 16.1632 12.6427 16.0986 12.6266L16.0868 12.6236L14.627 12.2587C14.591 12.2497 14.5555 12.2408 14.5204 12.232C13.9199 12.0813 13.4483 11.963 12.9811 12.0056C12.5706 12.043 12.1738 12.1721 11.82 12.3836C11.4173 12.6242 11.1058 12.9975 10.709 13.4728C10.6858 13.5006 10.6624 13.5287 10.6386 13.5572L9.52815 14.8854C7.65513 13.8302 6.16981 12.3449 5.1146 10.4718ZM10.9191 15.5603C12.2526 16.112 13.7532 16.4812 15.4121 16.6481C15.4138 16.6482 15.4152 16.6483 15.4165 16.6483L15.4336 16.6491C15.7195 16.6643 16.045 16.5428 16.3143 16.2985C16.5836 16.0542 16.7361 15.742 16.7488 15.456C16.7496 15.4383 16.7498 15.4301 16.7499 15.4248L16.75 15.3942C16.75 15.3098 16.7499 15.2864 16.7492 15.2677C16.7302 14.727 16.3655 14.2598 15.8455 14.1103C15.8275 14.1051 15.8048 14.0993 15.723 14.0788L14.2632 13.7139C13.5042 13.5241 13.298 13.4829 13.1172 13.4994C12.9306 13.5164 12.7503 13.5751 12.5894 13.6712C12.4336 13.7643 12.2912 13.919 11.7894 14.5193L10.9191 15.5603ZM15.5767 18.1215C15.5822 18.12 15.588 18.1184 15.5941 18.1165C15.6092 18.112 15.6278 18.106 15.6487 18.098C15.6693 18.0901 15.6956 18.079 15.7251 18.0637C15.737 18.0574 15.7619 18.0433 15.7747 18.0355C15.789 18.0265 15.8185 18.0062 15.8337 17.995C15.8505 17.9819 15.8849 17.9525 15.9023 17.9361C15.9213 17.917 15.9591 17.8744 15.9778 17.8508C15.9974 17.8237 16.0345 17.7641 16.0517 17.7316C16.0685 17.6954 16.0969 17.6185 16.1081 17.5779C16.1174 17.535 16.1284 17.4479 16.13 17.4039C16.1291 17.3606 16.1202 17.2764 16.1124 17.2358C16.0892 17.1309 16.0473 17.0479 16.0082 16.9879C15.9967 16.971 15.9761 16.9432 15.9607 16.9237C16.1199 17.4576 15.7537 18.0105 15.5767 18.1215ZM15.8277 16.796C15.8221 16.7919 15.8168 16.7881 15.8118 16.7846C15.7883 16.768 15.767 16.755 15.7501 16.7454C15.7329 16.7357 15.7174 16.7278 15.7047 16.7217C15.6919 16.7155 15.6803 16.7105 15.6705 16.7063C15.6696 16.7059 15.6686 16.7056 15.6677 16.7052C15.7105 16.7263 15.7689 16.7582 15.8277 16.796ZM1.87848 4.42334C1.98949 4.24639 2.54223 3.88016 3.07621 4.03915C3.0566 4.02379 3.02877 4.00313 3.01189 3.99171C2.95188 3.95257 2.86876 3.9107 2.76384 3.88755C2.72326 3.87976 2.63907 3.87083 2.59572 3.86995C2.55171 3.87163 2.46459 3.88266 2.42178 3.89196C2.38117 3.90324 2.30426 3.93165 2.26812 3.94846C2.23567 3.96561 2.17611 4.00273 2.14898 4.02237C2.12542 4.041 2.08286 4.07886 2.06377 4.09786C2.04741 4.11527 2.01802 4.14961 2.00489 4.1664C1.99366 4.18159 1.97345 4.21111 1.96441 4.22537C1.95664 4.23822 1.94259 4.26306 1.93627 4.27499C1.92098 4.30451 1.90987 4.33078 1.90197 4.35139C1.89396 4.37229 1.88793 4.39083 1.88344 4.40589C1.88163 4.41198 1.87998 4.41781 1.87848 4.42334ZM3.20383 4.17211C3.24176 4.23097 3.27373 4.28945 3.29483 4.33229C3.29443 4.33135 3.29404 4.3304 3.29363 4.32944C3.28952 4.31965 3.28443 4.30809 3.27826 4.29524C3.27215 4.28251 3.2643 4.26708 3.25454 4.24988C3.24491 4.23289 3.23199 4.21165 3.21539 4.18807C3.21185 4.18305 3.208 4.17772 3.20383 4.17211Z" fill="#F03E3E"/>
</svg>

<svg width="20" height="20" fill="none" xmlns="http://www.w3.org/2000/svg"><path fill-rule="evenodd" clip-rule="evenodd" d="M4.732 3.25h-.156l-.032.001c-.286.013-.598.165-.843.435-.244.269-.365.595-.35.88v.022c.168 1.659.537 3.16 1.089 4.493l1.04-.87c.601-.502.756-.645.849-.8a1.25 1.25 0 0 0 .172-.528c.016-.181-.025-.387-.215-1.146l-.365-1.46a4.276 4.276 0 0 0-.031-.123 1.25 1.25 0 0 0-1.158-.903Zm.383 7.222 1.328-1.11.084-.071c.476-.397.849-.708 1.09-1.111.21-.354.34-.75.377-1.161.043-.467-.075-.939-.226-1.54l-.027-.106-.365-1.46-.003-.012A2.75 2.75 0 0 0 4.617 1.75h-.011c-.04 0-.069 0-.128.003-.753.033-1.423.413-1.887.925-.448.493-.755 1.164-.741 1.885a.463.463 0 0 0 0 .05v.031l.001.011.001.008v.008l.001.005c.216 2.213.77 4.208 1.644 5.947a13.01 13.01 0 0 0 5.88 5.88c1.74.875 3.734 1.428 5.947 1.644h.01l.003.001h.008l.011.002h.031l.016.001h.018l.016-.001c.721.014 1.392-.293 1.885-.74.512-.465.892-1.135.925-1.888.003-.06.003-.088.003-.128v-.012c0-.067 0-.118-.002-.167a2.75 2.75 0 0 0-2.15-2.588l-.011-.003-1.46-.365a163.23 163.23 0 0 1-.107-.027c-.6-.15-1.072-.269-1.539-.226-.41.037-.807.166-1.161.378-.403.24-.714.614-1.111 1.089l-.07.084-1.11 1.328a11.445 11.445 0 0 1-4.414-4.413Zm5.804 5.088c1.334.552 2.834.921 4.493 1.088h.004l.018.001c.286.015.611-.106.88-.35.27-.245.422-.557.435-.843v-.031l.001-.03v-.127a1.25 1.25 0 0 0-.905-1.158 4.227 4.227 0 0 0-.122-.031l-1.46-.365c-.759-.19-.965-.231-1.146-.215a1.25 1.25 0 0 0-.528.172c-.155.093-.298.248-.8.848l-.87 1.041Zm4.658 2.562a.5.5 0 0 0 .072-.024.746.746 0 0 0 .481-.694.75.75 0 0 0-.17-.48c.16.534-.206 1.087-.383 1.198Zm.25-1.326a.924.924 0 0 0-.122-.074.788.788 0 0 0-.034-.016h-.003c.043.02.1.052.16.09ZM1.879 4.423c.111-.177.664-.543 1.198-.384a.75.75 0 0 0-1.198.384Zm1.326-.25c.038.058.07.116.09.16v-.004a.746.746 0 0 0-.09-.157Z" fill="#F03E3E"/></svg>
